!!!!SEGMENT: pl-wtm--r-1226--001_lodwigowski-edward-stefan--juz-miesiac-zaszedl.krn
!!!cenid: 18xx:1917
!!!COM: Łodwigowski, Edward Stefan
!!!COM-rismID: pe30111147
!!!CDT: 1815/08/14-1895/11/12
!!!CNT: Polish
!!!OTL: Już miesiąc zaszedł
!!!PDT:
!!!AGN:
!!!SMS-siglum: PL-Wtm
!!!SMS-shelfmark: R 1226
!!!SMS-shelfwork: 001 W
!!!SMS-variant:
!!!SMS-altvar:
!!!NIFC-rismSourceID: 1001083972
!!!NIFC-islandoraID:
!!!URL-pdf-islandora:
!!!URL-scan:
!!!ONB-nifc: UWAGA: No. 49
!!!OMD: Andante
!!!AIN: 1 empty
!!!key:
**kern	**fing	**kern	**fing	**dynam
*part1	*part1	*part1	*part1	*part1
*staff2	*staff2	*staff1	*staff1	*
*>[A,A]	*>[A,A]	*>[A,A]	*>[A,A]	*>[A,A]
*>A	*>A	*>A	*>A	*>A
*Iempty	*	*Iforte	*	*
*	*	*I"Fortepian	*	*
*clefF4	*	*clefG2	*	*
*k[f#]	*	*k[f#]	*	*
*e:	*	*e:	*	*
*M2/4	*	*M2/4	*	*
*all\right	*	*all\right	*	*
=1	=1	=1	=1	=1
*2\right	*	*	*	*
!	!	!LO:TX:a:t=Już miesiąc zaszedł (P. L. P.)	!	!
!	!	!LO:TX:a:t=No 49.	!	!LO:DY:rj
*	*below	*	*	*
2B 2G 2E\	4	(8e/L	1	p
.	.	8g/J)	3	.
.	.	8b'\L	.	.
.	.	8b'\J	.	.
=2	=2	=2	=2	=2
*^	*	*	*	*
*	*^	*	*	*	*
!LO:N:vis=2	!	!	!	!	!	!
8D#X/L	8rAyy	2D#\	5	(4.b^\	.	.
8F#/	4.F#\	.	.	.	.	.
8B/	.	.	.	.	.	.
8B/J	.	.	.	8a\)	.	.
*	*v	*v	*	*	*	*
=3	=3	=3	=3	=3	=3
!LO:N:vis=2	!	!	!	!	!
8E/L	2E\	5	(4g/	.	.
8B/	.	.	.	.	.
8A/	.	.	8f#/L	.	.
8G/J	.	.	8e/J)	.	.
=4	=4	=4	=4	=4	=4
!LO:N:vis=2	!	!	!	!	!
8F#/L	2F#\	.	4e/	3	.
8A/	.	.	.	.	.
8B/	.	.	(8.e-X/L	.	.
8c/J	.	.	.	.	.
.	.	.	16d/Jk)	.	.
=5	=5	=5	=5	=5	=5
2B/	2G\	.	(8g/L	2	.
!	!	!	!	!	!LO:HP:t=cres
.	.	.	8b/J)	4	<
.	.	.	8dd'\L	.	.
.	.	.	8dd'\J	.	.
=6	=6	=6	=6	=6	=6
*	*^	*	*	*	*
!LO:N:vis=2	!	!	!	!	!	!
8F#/L	8ryy	2F#\	.	(4.dd^\	.	.
8A/	4.A\	.	.	.	.	.
8d/	.	.	.	.	.	.
8d/J	.	.	.	8cc\)	.	.
*	*v	*v	*	*	*	*
!!LO:LB:g=original
=7	=7	=7	=7	=7	=7
!LO:N:vis=2	!	!	!	!	!
8G/L	2G\	.	(4b\	.	.
8d/	.	.	.	.	.
8c#X/	.	2	4a#X\	.	.
8e/J	.	1	.	.	.
=8	=8	=8	=8	=8	=8
*	*	*^	*	*	*
*	*	*above	*above	*	*	*
8d/L	4G\	2	.	4b\)	.	.
8B/J	.	3	.	.	.	>
8G/	8G\L	1	.	4r	.	.
8ryy	8F#\J	.	3	.	.	]]
*	*	*v	*v	*	*	*
*v	*v	*	*	*	*
=9	=9	=9	=9	=9
*	*below	*	*	*
2B 2G 2E\	4	(8e/L	.	.
.	.	8g/)	.	.
.	.	8b'/	.	.
.	.	8b'/J	.	.
=10	=10	=10	=10	=10
*^	*	*	*	*
!	!LO:N:vis=2	!	!	!	!
2D#X/	8D#\L	.	(4.b^/	.	.
.	8F#\	.	.	.	.
.	8B\	.	.	.	.
.	8B\J	.	8a/)	.	.
=11	=11	=11	=11	=11	=11
!	!LO:N:vis=2	!	!	!	!
2E/	(>8E\L	.	(8.g/L	.	.
.	8B\	.	.	.	.
.	.	.	16f#/Jk	.	.
.	8G\	.	16a/LL	.	.
.	.	.	16g/	.	.
.	8B\J)	.	16f#/	.	.
.	.	.	16e/JJ)	.	.
=12	=12	=12	=12	=12	=12
!	!LO:N:vis=2	!	!	!	!
2BB/	(>8BB\L	.	4e/	.	.
.	8A\	.	.	.	.
.	8F#\	.	4d#X/	.	.
.	8A\J)	.	.	.	.
=13	=13	=13	=13	=13	=13
!	!LO:N:vis=2	!	!	!	!
2AA/	8AA\L	.	(4cc\	5	.
.	8F#\	.	.	.	.
.	8C\	.	8a/L	4	.
.	8F#\J	.	8f#/J)	2	.
!!LO:LB:g=original
=14	=14	=14	=14	=14	=14
!	!LO:N:vis=2	!	!	!	!
2BB/	8BB\L	.	(4b\	5	.
.	8G\	.	.	.	.
.	8E\	.	8g/L	.	.
.	8G\J	.	8e/J)	.	.
=15	=15	=15	=15	=15	=15
!	!LO:N:vis=2	!	!	!	!
2BB/	8BB\L	.	(4f#/	.	.
.	8A\	.	.	.	.
.	8F#\	.	8.b/L	.	.
.	8A\J	.	.	.	.
.	.	.	16d#X/Jk	.	.
=16	=16	=16	=16	=16	=16
*	*	*^	*	*	*
4E/	8E\L	.	.	4e/)	.	.
.	8B\	.	.	.	.	.
*	*	*	*above	*	*	*
4ryy	8G\	.	2	4r	.	.
.	8E\J	.	3.	.	.	.
*	*	*v	*v	*	*	*
=17	=17	=17	=17	=17	=17
!	!LO:N:vis=2	!	!	!	!
2AA/	8AA\L	.	(8cc\L	.	.
.	8F#\	.	8a\J)	.	.
.	8C\	.	(8a/L	.	.
.	8F#\J	.	8f#/J)	.	.
=18	=18	=18	=18	=18	=18
!	!LO:N:vis=2	!	!	!	!
2BB/	8BB\L	.	(8b/L	.	.
.	8G\	.	8g/	.	.
.	8E\	.	8f#/	.	.
.	8G\J	.	8e/J)	.	.
=19	=19	=19	=19	=19	=19
!	!LO:N:vis=2	!	!	!	!
2BB/	8BB\L	.	(8e/L	.	.
.	8A\	.	8d#X/J)	.	.
.	8F#\	.	(8.b/L	.	.
.	8A\J	.	.	.	.
.	.	.	16d#/Jk)	.	.
=20	=20	=20	=20	=20	=20
8G/L	4E\	.	[4e/	.	.
8B/J	.	.	.	.	.
8G/	8E\	.	8e/]	.	.
8r	8rBByy	.	8r	.	.
*v	*v	*	*	*	*
=:|!	=:|!	=:|!	=:|!	=:|!
*-	*-	*-	*-	*-
!!!system-decoration: {p1}
!!!RDF**kern: > = above
!!!RDF**kern: < = below
!!!ENC: Andrzej Kubiczek
!!!END: 2021-05-01
!!!ENC: Marcin Jachim
!!!END: 2021-04-16
